tn/superscript.svg

<svg viewBox="0 0 15 15" fill="none" xmlns="http://www.w3.org/2000/svg" height="1em" width="1em">
  <path fill-rule="evenodd" clip-rule="evenodd" d="M12 1.5C12 0.671573 12.6716 0 13.5 0H13.7929C14.4596 0 15 0.54044 15 1.20711C15 1.52725 14.8728 1.83428 14.6465 2.06066L13.7071 3H15V4H12.5C12.2978 4 12.1155 3.87818 12.0381 3.69134C11.9607 3.5045 12.0035 3.28945 12.1465 3.14645L13.9393 1.35355C13.9782 1.31471 14 1.26204 14 1.20711C14 1.09272 13.9073 1 13.7929 1H13.5C13.2239 1 13 1.22386 13 1.5H12ZM5.37501 7.5L1.10001 1.8L1.90001 1.2L6.00001 6.66667L10.1 1.2L10.9 1.8L6.62501 7.5L10.9 13.2L10.1 13.8L6.00001 8.33333L1.90001 13.8L1.10001 13.2L5.37501 7.5Z" fill="black"/>
</svg>

<svg viewBox="0 0 15 15" fill="none" xmlns="http://www.w3.org/2000/svg" height="1em" width="1em">
  <path fill-rule="evenodd" clip-rule="evenodd" d="M12 1.5A1.5 1.5 0 0 1 13.5 0h.293a1.207 1.207 0 0 1 .854 2.06l-.94.94H15v1h-2.5a.5.5 0 0 1-.354-.854l1.793-1.792A.207.207 0 0 0 13.793 1H13.5a.5.5 0 0 0-.5.5h-1Zm-6.625 6L1.1 1.8l.8-.6L6 6.667 10.1 1.2l.8.6-4.275 5.7 4.275 5.7-.8.6L6 8.333 1.9 13.8l-.8-.6 4.275-5.7Z" fill="#000"/>
</svg>
